public/images/direction_icons/guide.svg

<svg width="20" height="20" xmlns="http://www.w3.org/2000/svg"><g fill="none" fill-rule="evenodd"><path d="M0 0h20v20H0z"/><path d="M10.8333333 6.66666667v6.66666663c0 1.3807119-1.11928809 2.5-2.49999997 2.5H6.525c-.40588213 1.1484386-1.58013445 1.8374137-2.78065714 1.6315093C2.54382016 17.2589383 1.6662602 16.2180523 1.6662602 15c0-1.2180523.87755996-2.2589383 2.07808266-2.4648426 1.20052269-.2059044 2.37477501.4830707 2.78065714 1.6315093h1.80833333c.46023729 0 .83333334-.3730961.83333334-.8333334V6.66666667c0-1.38071188 1.11928813-2.5 2.50000003-2.5h2.5v-2.5L18.3333333 5l-4.1666666 3.33333333v-2.5h-2.5c-.4602373 0-.8333334.37309605-.8333334.83333334ZM4.16666667 15.8333333C4.62690396 15.8333333 5 15.4602373 5 15c0-.4602373-.37309604-.8333333-.83333333-.8333333-.46023729 0-.83333334.373096-.83333334.8333333 0 .4602373.37309605.8333333.83333334.8333333Z" fill="#000"/></g></svg>

<?xml version="1.0" encoding="UTF-8"?>
<svg width="20px" height="20px" viewBox="0 0 20 20" version="1.1" xmlns="http://www.w3.org/2000/svg" xmlns:xlink="http://www.w3.org/1999/xlink">
    <title>CC2CDC91-E48F-4373-9E63-174845C0B751</title>
    <g id="🗺-Qwant-Maps" stroke="none" stroke-width="1" fill="none" fill-rule="evenodd">
        <g id="Screens/Direction/Mobile/List" transform="translate(-123.000000, -124.000000)">
            <g id="Buttons/Primary/Normal" transform="translate(11.000000, 116.000000)">
                <g id="guide-line" transform="translate(112.000000, 8.000000)">
                    <polygon id="Path" points="0 0 20 0 20 20 0 20"></polygon>
                    <path d="M10.8333333,6.66666667 L10.8333333,13.3333333 C10.8333333,14.7140452 9.71404521,15.8333333 8.33333333,15.8333333 L6.525,15.8333333 C6.11911787,16.9817719 4.94486555,17.670747 3.74434286,17.4648426 C2.54382016,17.2589383 1.6662602,16.2180523 1.6662602,15 C1.6662602,13.7819477 2.54382016,12.7410617 3.74434286,12.5351574 C4.94486555,12.329253 6.11911787,13.0182281 6.525,14.1666667 L8.33333333,14.1666667 C8.79357062,14.1666667 9.16666667,13.7935706 9.16666667,13.3333333 L9.16666667,6.66666667 C9.16666667,5.28595479 10.2859548,4.16666667 11.6666667,4.16666667 L14.1666667,4.16666667 L14.1666667,1.66666667 L18.3333333,5 L14.1666667,8.33333333 L14.1666667,5.83333333 L11.6666667,5.83333333 C11.2064294,5.83333333 10.8333333,6.20642938 10.8333333,6.66666667 Z M4.16666667,15.8333333 C4.62690396,15.8333333 5,15.4602373 5,15 C5,14.5397627 4.62690396,14.1666667 4.16666667,14.1666667 C3.70642938,14.1666667 3.33333333,14.5397627 3.33333333,15 C3.33333333,15.4602373 3.70642938,15.8333333 4.16666667,15.8333333 Z" id="Shape" fill="#FFFFFF"></path>
                </g>
            </g>
        </g>
    </g>
</svg>
